src/avatars/professional.svg

<svg width="264px" height="280px" viewBox="0 0 264 280" version="1.1" xmlns="http://www.w3.org/2000/svg" xmlns:xlink="http://www.w3.org/1999/xlink"><desc>Created with getavataaars.com</desc><defs><circle id="react-path-1" cx="120" cy="120" r="120"></circle><path d="M12,160 C12,226.27417 65.72583,280 132,280 C198.27417,280 252,226.27417 252,160 L264,160 L264,-1.42108547e-14 L-3.19744231e-14,-1.42108547e-14 L-3.19744231e-14,160 L12,160 Z" id="react-path-2"></path><path d="M124,144.610951 L124,163 L128,163 L128,163 C167.764502,163 200,195.235498 200,235 L200,244 L0,244 L0,235 C-4.86974701e-15,195.235498 32.235498,163 72,163 L72,163 L76,163 L76,144.610951 C58.7626345,136.422372 46.3722246,119.687011 44.3051388,99.8812385 C38.4803105,99.0577866 34,94.0521096 34,88 L34,74 C34,68.0540074 38.3245733,63.1180731 44,62.1659169 L44,56 L44,56 C44,25.072054 69.072054,5.68137151e-15 100,0 L100,0 L100,0 C130.927946,-5.68137151e-15 156,25.072054 156,56 L156,62.1659169 C161.675427,63.1180731 166,68.0540074 166,74 L166,88 C166,94.0521096 161.51969,99.0577866 155.694861,99.8812385 C153.627775,119.687011 141.237365,136.422372 124,144.610951 Z" id="react-path-3"></path></defs><g id="Avataaar" stroke="none" stroke-width="1" fill="none" fill-rule="evenodd"><g transform="translate(-825.000000, -1100.000000)" id="Avataaar/Circle"><g transform="translate(825.000000, 1100.000000)"><g id="Mask"></g><g id="Avataaar" stroke-width="1" fill-rule="evenodd" mask="url(#react-mask-5)"><g id="Body" transform="translate(32.000000, 36.000000)"><mask id="react-mask-6" fill="white"><use xlink:href="#react-path-3"></use></mask><use fill="#D0C6AC" xlink:href="#react-path-3"></use><g id="Skin/👶🏽-03-Brown" mask="url(#react-mask-6)" fill="#FFDBB4"><g transform="translate(0.000000, 0.000000)" id="Color"><rect x="0" y="0" width="264" height="280"></rect></g></g><path d="M156,79 L156,102 C156,132.927946 130.927946,158 100,158 C69.072054,158 44,132.927946 44,102 L44,79 L44,94 C44,124.927946 69.072054,150 100,150 C130.927946,150 156,124.927946 156,94 L156,79 Z" id="Neck-Shadow" fill-opacity="0.100000001" fill="#000000" mask="url(#react-mask-6)"></path></g><g id="Clothing/Collar-+-Sweater" transform="translate(0.000000, 170.000000)"><defs><path d="M105.192402,29.0517235 L104,29.0517235 L104,29.0517235 C64.235498,29.0517235 32,61.2872215 32,101.051724 L32,110 L232,110 L232,101.051724 C232,61.2872215 199.764502,29.0517235 160,29.0517235 L160,29.0517235 L158.807598,29.0517235 C158.934638,30.0353144 159,31.0364513 159,32.0517235 C159,45.8588423 146.911688,57.0517235 132,57.0517235 C117.088312,57.0517235 105,45.8588423 105,32.0517235 C105,31.0364513 105.065362,30.0353144 105.192402,29.0517235 Z" id="react-path-25"></path></defs><mask id="react-mask-26" fill="white"><use xlink:href="#react-path-25"></use></mask><use id="Clothes" fill="#E6E6E6" fill-rule="evenodd" xlink:href="#react-path-25"></use><g id="Color/Palette/Gray-01" mask="url(#react-mask-26)" fill-rule="evenodd" fill="#25557C"><rect id="🖍Color" x="0" y="0" width="264" height="110"></rect></g><path d="M156,22.2794906 C162.181647,26.8351858 166,33.1057265 166,40.027915 C166,47.2334941 161.862605,53.7329769 155.228997,58.3271669 L149.57933,53.8764929 L145,54.207887 L146,51.0567821 L145.922229,50.995516 C152.022491,47.8530505 156,42.7003578 156,36.8768102 L156,22.2794906 Z M108,21.5714994 C101.232748,26.1740081 97,32.7397769 97,40.027915 C97,47.4261549 101.361602,54.080035 108.308428,58.6915723 L114.42067,53.8764929 L119,54.207887 L118,51.0567821 L118.077771,50.995516 C111.977509,47.8530505 108,42.7003578 108,36.8768102 L108,21.5714994 Z" id="Collar" fill="#F2F2F2" fill-rule="evenodd"></path></g><g id="Face" transform="translate(76.000000, 82.000000)" fill="#000000"><g id="Mouth/Smile" transform="translate(2.000000, 52.000000)"><defs><path d="M35.117844,15.1280772 C36.1757121,24.6198025 44.2259873,32 54,32 C63.8042055,32 71.8740075,24.574136 72.8917593,15.0400546 C72.9736685,14.272746 72.1167429,13 71.042767,13 C56.1487536,13 44.7379213,13 37.0868244,13 C36.0066168,13 35.0120058,14.1784435 35.117844,15.1280772 Z" id="react-path-107"></path></defs><mask id="react-mask-108" fill="white"><use xlink:href="#react-path-107"></use></mask><use id="Mouth" fill-opacity="0.699999988" fill="#000000" fill-rule="evenodd" xlink:href="#react-path-107"></use><rect id="Teeth" fill="#FFFFFF" fill-rule="evenodd" mask="url(#react-mask-108)" x="39" y="2" width="31" height="16" rx="5"></rect><g id="Tongue" stroke-width="1" fill-rule="evenodd" mask="url(#react-mask-108)" fill="#FF4F6D"><g transform="translate(38.000000, 24.000000)"><circle cx="11" cy="11" r="11"></circle><circle cx="21" cy="11" r="11"></circle></g></g></g><g id="Nose/Default" transform="translate(28.000000, 40.000000)" fill-opacity="0.16"><path d="M16,8 C16,12.418278 21.372583,16 28,16 L28,16 C34.627417,16 40,12.418278 40,8" id="Nose"></path></g><g id="Eyes/Default-😀" transform="translate(0.000000, 8.000000)" fill-opacity="0.599999964"><circle id="Eye" cx="30" cy="22" r="6"></circle><circle id="Eye" cx="82" cy="22" r="6"></circle></g><g id="Eyebrow/Outline/Default" fill-opacity="0.599999964"><g id="I-Browse" transform="translate(12.000000, 6.000000)"><path d="M3.63024536,11.1585767 C7.54515501,5.64986673 18.2779197,2.56083721 27.5230268,4.83118046 C28.5957248,5.0946055 29.6788665,4.43856013 29.9422916,3.36586212 C30.2057166,2.2931641 29.5496712,1.21002236 28.4769732,0.94659732 C17.7403633,-1.69001789 5.31209962,1.88699832 0.369754639,8.84142326 C-0.270109626,9.74178291 -0.0589363917,10.9903811 0.84142326,11.6302454 C1.74178291,12.2701096 2.9903811,12.0589364 3.63024536,11.1585767 Z" id="Eyebrow" fill-rule="nonzero"></path><path d="M61.6302454,11.1585767 C65.545155,5.64986673 76.2779197,2.56083721 85.5230268,4.83118046 C86.5957248,5.0946055 87.6788665,4.43856013 87.9422916,3.36586212 C88.2057166,2.2931641 87.5496712,1.21002236 86.4769732,0.94659732 C75.7403633,-1.69001789 63.3120996,1.88699832 58.3697546,8.84142326 C57.7298904,9.74178291 57.9410636,10.9903811 58.8414233,11.6302454 C59.7417829,12.2701096 60.9903811,12.0589364 61.6302454,11.1585767 Z" id="Eyebrow" fill-rule="nonzero" transform="translate(73.000154, 6.039198) scale(-1, 1) translate(-73.000154, -6.039198) "></path></g></g></g><g id="Top" stroke-width="1" fill-rule="evenodd"><defs><rect id="react-path-99" x="0" y="0" width="264" height="280"></rect><path d="M183.679824,38.9488198 C189.086072,33.9985622 190.387393,23.9615454 187.317704,17.4493246 C183.549263,9.45385312 175.901319,8.45217737 168.572342,11.9686703 C161.664469,15.2835661 155.515175,16.3878671 147.950196,14.7817319 C140.691624,13.2406923 133.805566,10.5226172 126.303388,10.0762471 C113.978028,9.34292483 102.003367,13.914565 93.6031232,23.1292512 C92.0003538,24.8871655 90.7089493,26.8971594 89.4882796,28.9343872 C88.5115454,30.5644351 87.4105298,32.3133822 86.9950459,34.1921885 C86.7973853,35.0855929 87.165272,37.2898774 86.7203704,38.0218712 C86.2391099,38.8123183 84.4244668,39.5373375 83.6510124,40.1238625 C82.0842713,41.3125222 80.7267597,42.6539573 79.4713836,44.1710842 C76.8052796,47.3926541 75.3376994,50.7577001 74.1034777,54.7428152 C70.0005333,67.9877849 69.6528094,83.7412616 74.9569218,96.7467724 C75.6639385,98.4811062 77.8550622,102.098564 79.1431613,98.3847912 C79.3976741,97.6508047 78.8086588,95.1907873 78.8099809,94.4501584 C78.8146084,91.7300906 80.3160587,73.7213568 86.857084,63.6330196 C88.9862338,60.3491948 98.8298903,48.0522456 100.840541,47.9536058 C101.9058,49.6464245 112.720532,60.4624529 140.783385,59.1948919 C153.445253,58.6229725 163.18265,52.9341181 165.520833,50.4680909 C166.549375,56.0008881 178.51323,64.2839965 180.33625,67.6921976 C185.602529,77.5376948 186.770677,97.9957204 188.780988,97.9573368 C190.791299,97.9189532 192.234429,92.7197798 192.647929,91.7270713 C195.719601,84.351669 196.242509,75.0948338 195.914948,67.1684434 C195.487565,56.9663626 191.276535,45.9419513 183.679824,38.9488198 Z" id="react-path-98"></path><filter x="-0.8%" y="-2.0%" width="101.5%" height="108.0%" filterUnits="objectBoundingBox" id="react-filter-95"><feOffset dx="0" dy="2" in="SourceAlpha" result="shadowOffsetOuter1"></feOffset><feColorMatrix values="0 0 0 0 0   0 0 0 0 0   0 0 0 0 0  0 0 0 0.16 0" type="matrix" in="shadowOffsetOuter1" result="shadowMatrixOuter1"></feColorMatrix><feMerge><feMergeNode in="shadowMatrixOuter1"></feMergeNode><feMergeNode in="SourceGraphic"></feMergeNode></feMerge></filter></defs><mask id="react-mask-97" fill="white"><use xlink:href="#react-path-99"></use></mask><g id="Mask"></g><g id="Top/Short-Hair/Short-Waved" mask="url(#react-mask-97)"><g transform="translate(-1.000000, 0.000000)"><g id="Facial-Hair/Beard-Light" transform="translate(49.000000, 72.000000)"><defs><path d="M101.428403,98.1685688 C98.9148372,100.462621 96.23722,101.494309 92.8529444,100.772863 C92.2705777,100.648833 89.8963391,96.2345713 83.9998344,96.2345713 C78.1033297,96.2345713 75.7294253,100.648833 75.1467245,100.772863 C71.7624488,101.494309 69.0848316,100.462621 66.5712661,98.1685688 C61.8461772,93.855604 57.9166219,87.9081858 60.2778299,81.4191814 C61.5083844,78.0369425 63.5097479,74.3237342 67.1506257,73.2459109 C71.0384163,72.0955419 76.4968931,73.2439051 80.4147542,72.4582708 C81.6840664,72.2035248 83.0706538,71.7508657 83.9998344,71 C84.929015,71.7508657 86.3159365,72.2035248 87.5845805,72.4582708 C91.5027758,73.2439051 96.9612525,72.0955419 100.849043,73.2459109 C104.489921,74.3237342 106.491284,78.0369425 107.722173,81.4191814 C110.083381,87.9081858 106.153826,93.855604 101.428403,98.1685688 M140.081033,26 C136.670693,34.4002532 137.987774,44.8580348 137.356666,53.6758724 C136.844038,60.8431942 135.33712,71.5857526 128.972858,76.214531 C125.718361,78.5816138 119.79436,82.5598986 115.54187,81.4501943 C112.614539,80.6863848 112.302182,72.290096 108.455284,69.1469801 C104.09172,65.5823153 98.6429854,64.0160432 93.1491481,64.2578722 C90.7785381,64.3622683 85.9841367,64.3374908 83.9999331,66.1604584 C82.0157295,64.3374908 77.2216647,64.3622683 74.8510547,64.2578722 C69.3568808,64.0160432 63.9081467,65.5823153 59.5445817,69.1469801 C55.6976839,72.290096 55.3856641,80.6863848 52.4583326,81.4501943 C48.2058427,82.5598986 42.2818421,78.5816138 39.0270077,76.214531 C32.6624096,71.5857526 31.1561652,60.8431942 30.642864,53.6758724 C30.0120926,44.8580348 31.3291729,34.4002532 27.9188335,26 C26.2597768,26 27.3540339,42.1288693 27.3540339,42.1288693 L27.3540339,62.4851205 C27.3856735,77.7732046 36.935095,100.655445 58.1080116,109.393004 C63.2861266,111.52982 75.0153111,115 83.9999331,115 C92.9845551,115 104.71374,111.860188 109.891855,109.723371 C131.064771,100.985813 140.614193,77.7732046 140.646169,62.4851205 L140.646169,42.1288693 C140.646169,42.1288693 141.740089,26 140.081033,26" id="react-path-116"></path></defs><mask id="react-mask-115" fill="white"><use xlink:href="#react-path-116"></use></mask><use id="Lite-Beard" fill="#331B0C" fill-rule="evenodd" xlink:href="#react-path-116"></use><g id="Color/Hair/Brown" mask="url(#react-mask-115)" fill="#724133"><g transform="translate(-32.000000, 0.000000)" id="Color"><rect x="0" y="0" width="264" height="244"></rect></g></g></g><mask id="react-mask-96" fill="white"><use xlink:href="#react-path-98"></use></mask><use id="Short-Hair" stroke="none" fill="#28354B" fill-rule="evenodd" xlink:href="#react-path-98"></use><g id="Skin/👶🏽-03-Brown" mask="url(#react-mask-96)" fill="#B58143"><g transform="translate(0.000000, 0.000000) " id="Color"><rect x="0" y="0" width="264" height="280"></rect></g></g><g id="Top/_Resources/Prescription-02" fill="none" transform="translate(62.000000, 85.000000)" stroke-width="1"><defs><filter x="-0.8%" y="-2.4%" width="101.5%" height="109.8%" filterUnits="objectBoundingBox" id="react-filter-100"><feOffset dx="0" dy="2" in="SourceAlpha" result="shadowOffsetOuter1"></feOffset><feColorMatrix values="0 0 0 0 0   0 0 0 0 0   0 0 0 0 0  0 0 0 0.2 0" type="matrix" in="shadowOffsetOuter1" result="shadowMatrixOuter1"></feColorMatrix><feMerge><feMergeNode in="shadowMatrixOuter1"></feMergeNode><feMergeNode in="SourceGraphic"></feMergeNode></feMerge></filter></defs><g id="Wayfarers" filter="url(#react-filter-100)" transform="translate(6.000000, 7.000000)" fill="#252C2F"><path d="M34,41 L31.2421498,41 C17.3147125,41 9,33.3359286 9,20.5 C9,10.127 10.8170058,0 32.5299306,0 L35.4700694,0 C57.1829942,0 59,10.127 59,20.5 C59,32.5686429 48.7212748,41 34,41 Z M32.3853606,6 C13,6 13,12.8410159 13,21.5015498 C13,28.5719428 16.116254,37 30.9709365,37 L34,37 C46.3649085,37 55,30.6270373 55,21.5015498 C55,12.8410159 55,6 35.6146394,6 L32.3853606,6 Z" id="Left" fill-rule="nonzero"></path><path d="M96,41 L93.2421498,41 C79.3147125,41 71,33.3359286 71,20.5 C71,10.127 72.8170058,0 94.5299306,0 L97.4700694,0 C119.182994,0 121,10.127 121,20.5 C121,32.5686429 110.721275,41 96,41 Z M94.3853606,6 C75,6 75,12.8410159 75,21.5015498 C75,28.5719428 78.1194833,37 92.9709365,37 L96,37 C108.364909,37 117,30.6270373 117,21.5015498 C117,12.8410159 117,6 97.6146394,6 L94.3853606,6 Z" id="Right" fill-rule="nonzero"></path><path d="M2.95454545,5.77156439 C3.64590909,5.09629136 11.2095455,0 32.5,0 C50.3513636,0 54.1302273,1.85267217 59.8502273,4.6518809 L60.2689233,4.85850899 C60.6666014,4.99901896 62.7002447,5.68982981 65.0790606,5.76579519 C67.2462948,5.67278567 69.1000195,5.08540191 69.641698,4.89719767 C76.1703915,1.7220864 82.5610971,0 97.5,0 C118.790455,0 126.354091,5.09629136 127.045455,5.77156439 C128.679318,5.77156439 130,7.06150904 130,8.65734659 L130,11.5431288 C130,13.1389663 128.679318,14.428911 127.045455,14.428911 C127.045455,14.428911 120.143997,14.428911 120.143997,17.3146932 C120.143997,20.2004754 118.181818,13.1389663 118.181818,11.5431288 L118.181818,8.73240251 C114.578575,7.35340151 108.128411,4.78617535 97.5,4.78617535 C85.6584651,4.78617535 79.7610984,6.88602813 74.7022935,8.97112368 L74.7588636,9.10752861 L74.7563667,11.0937608 L72.5391666,16.4436339 L69.8004908,15.3608351 C69.5558969,15.2641292 69.0281396,15.090392 68.2963505,14.9099044 C66.256272,14.4067419 64.1589087,14.253569 62.3040836,14.6343084 C61.6235903,14.7739931 60.9922286,14.9836085 60.4128127,15.266732 L57.7704824,16.5578701 L55.1266751,11.3962031 L55.2440909,9.10175705 L55.3248203,8.90683855 C50.9620526,6.87386374 46.9392639,4.78617535 32.5,4.78617535 C21.8721459,4.78617535 15.422131,7.3524397 11.8181818,8.7314671 L11.8181818,11.5431288 C11.8181818,13.1389663 8.86363636,20.2004754 8.86363636,17.3146932 C8.86363636,14.428911 2.95454545,14.428911 2.95454545,14.428911 C1.32363636,14.428911 0,13.1389663 0,11.5431288 L0,8.65734659 C0,7.06150904 1.32363636,5.77156439 2.95454545,5.77156439 Z" id="Stuff" fill-rule="nonzero"></path></g></g></g></g></g></g></g></g></g></svg>

<svg width="264" height="280" viewBox="0 0 264 280" xmlns="http://www.w3.org/2000/svg" xmlns:xlink="http://www.w3.org/1999/xlink"><defs><path d="M124 144.611V163h4c39.765 0 72 32.235 72 72v9H0v-9c0-39.765 32.235-72 72-72h4v-18.389c-17.237-8.189-29.628-24.924-31.695-44.73C38.48 99.058 34 94.052 34 88V74c0-5.946 4.325-10.882 10-11.834V56c0-30.928 25.072-56 56-56s56 25.072 56 56v6.166c5.675.952 10 5.888 10 11.834v14c0 6.052-4.48 11.058-10.305 11.881-2.067 19.806-14.458 36.541-31.695 44.73" id="a"/></defs><g fill="none" fill-rule="evenodd"><g/><g mask="url(#react-mask-5)"><g transform="translate(32 36)"><mask id="b" fill="#fff"><use xlink:href="#a"/></mask><use fill="#D0C6AC" xlink:href="#a"/><g mask="url(#b)" fill="#FFDBB4"><path d="M0 0h264v280H0z"/></g><path d="M156 79v23c0 30.928-25.072 56-56 56s-56-25.072-56-56V79v15c0 30.928 25.072 56 56 56s56-25.072 56-56z" fill-opacity=".1" fill="#000" mask="url(#b)"/></g><g transform="translate(0 170)"><defs><path d="M105.192 29.052H104c-39.765 0-72 32.235-72 72V110h200v-8.948c0-39.765-32.235-72-72-72h-1.192q.191 1.475.192 3c0 13.807-12.088 25-27 25s-27-11.193-27-25q0-1.525.192-3" id="c"/></defs><mask id="d" fill="#fff"><use xlink:href="#c"/></mask><use fill="#E6E6E6" xlink:href="#c"/><g mask="url(#d)" fill="#25557C"><path d="M0 0h264v110H0z"/></g><path d="M156 22.28c6.182 4.555 10 10.826 10 17.748 0 7.205-4.137 13.705-10.771 18.3l-5.65-4.452-4.579.332 1-3.151-.078-.061C152.022 47.853 156 42.7 156 36.876zm-48-.709c-6.767 4.603-11 11.169-11 18.457 0 7.398 4.362 14.052 11.308 18.664l6.113-4.816 4.579.332-1-3.151.078-.061C111.978 47.853 108 42.7 108 36.876z" fill="#F2F2F2"/></g><g fill="#000"><g transform="translate(78 134)"><defs><path d="M35.118 15.128C36.176 24.62 44.226 32 54 32c9.804 0 17.874-7.426 18.892-16.96.082-.767-.775-2.04-1.85-2.04H37.088c-1.08 0-2.075 1.178-1.97 2.128" id="e"/></defs><mask id="f" fill="#fff"><use xlink:href="#e"/></mask><use fill-opacity=".7" xlink:href="#e"/><rect fill="#FFF" mask="url(#f)" x="39" y="2" width="31" height="16" rx="5"/><g mask="url(#f)" fill="#FF4F6D"><g transform="translate(38 24)"><circle cx="11" cy="11" r="11"/><circle cx="21" cy="11" r="11"/></g></g></g><path d="M120 130c0 4.418 5.373 8 12 8s12-3.582 12-8" fill-opacity=".16"/><g transform="translate(76 90)" fill-opacity=".6"><circle cx="30" cy="22" r="6"/><circle cx="82" cy="22" r="6"/></g><path d="M91.63 99.159c3.915-5.51 14.648-8.599 23.893-6.329a2 2 0 0 0 .954-3.884c-10.737-2.636-23.165.941-28.107 7.894a2 2 0 0 0 3.26 2.318m80.74.001c-3.915-5.51-14.648-8.598-23.893-6.328a2 2 0 0 1-.954-3.884c10.737-2.637 23.165.94 28.107 7.893a2 2 0 0 1-3.26 2.318" fill-rule="nonzero" fill-opacity=".6"/></g><defs><path id="g" d="M0 0h264v280H0z"/><path d="M183.68 38.949c5.406-4.95 6.707-14.987 3.638-21.5-3.769-7.995-11.417-8.997-18.746-5.48-6.908 3.315-13.057 4.419-20.622 2.813-7.258-1.541-14.144-4.26-21.647-4.706-12.325-.733-24.3 3.839-32.7 13.053-1.603 1.758-2.894 3.768-4.115 5.805-.976 1.63-2.077 3.38-2.493 5.258-.198.894.17 3.098-.275 3.83-.48.79-2.296 1.515-3.069 2.102-1.567 1.189-2.924 2.53-4.18 4.047-2.666 3.222-4.133 6.587-5.368 10.572-4.102 13.245-4.45 28.998.854 42.004.707 1.734 2.898 5.352 4.186 1.638.255-.734-.334-3.194-.333-3.935.005-2.72 1.506-20.729 8.047-30.817 2.13-3.284 11.973-15.58 13.984-15.68 1.065 1.693 11.88 12.51 39.942 11.242 12.662-.572 22.4-6.26 24.738-8.727 1.028 5.533 12.992 13.816 14.815 17.224 5.267 9.846 6.435 30.304 8.445 30.265s3.453-5.237 3.867-6.23c3.072-7.375 3.595-16.632 3.267-24.559-.427-10.202-4.638-21.226-12.235-28.22" id="k"/></defs><mask id="h" fill="#fff"><use xlink:href="#g"/></mask><g/><g mask="url(#h)"><g transform="translate(-1)"><g transform="translate(49 72)"><defs><path d="M101.428 98.169c-2.513 2.294-5.19 3.325-8.575 2.604-.582-.124-2.957-4.538-8.853-4.538-5.897 0-8.27 4.414-8.853 4.538-3.385.721-6.062-.31-8.576-2.604-4.725-4.313-8.654-10.26-6.293-16.75 1.23-3.382 3.232-7.095 6.873-8.173 3.887-1.15 9.346-.002 13.264-.788 1.27-.254 2.656-.707 3.585-1.458.929.75 2.316 1.204 3.585 1.458 3.918.786 9.376-.362 13.264.788 3.64 1.078 5.642 4.79 6.873 8.173 2.361 6.49-1.568 12.437-6.294 16.75M140.081 26c-3.41 8.4-2.093 18.858-2.724 27.676-.513 7.167-2.02 17.91-8.384 22.539-3.255 2.367-9.179 6.345-13.431 5.235-2.927-.764-3.24-9.16-7.087-12.303-4.363-3.565-9.812-5.131-15.306-4.89-2.37.105-7.165.08-9.15 1.903-1.983-1.823-6.777-1.798-9.148-1.902-5.494-.242-10.943 1.324-15.306 4.889-3.847 3.143-4.16 11.54-7.087 12.303-4.252 1.11-10.176-2.868-13.431-5.235-6.365-4.63-7.87-15.372-8.384-22.54-.63-8.817.686-19.275-2.724-27.675-1.66 0-.565 16.129-.565 16.129v20.356c.032 15.288 9.581 38.17 30.754 46.908C63.286 111.53 75.015 115 84 115s20.714-3.14 25.892-5.277c21.173-8.737 30.722-31.95 30.754-47.238V42.13S141.74 26 140.081 26" id="i"/></defs><mask id="j" fill="#fff"><use xlink:href="#i"/></mask><use fill="#331B0C" xlink:href="#i"/><g mask="url(#j)" fill="#4a2a21"><path d="M-32 0h264v244H-32z"/></g></g><mask id="l" fill="#fff"><use xlink:href="#k"/></mask><use fill="#28354B" xlink:href="#k"/><g mask="url(#l)" fill="#724133"><path d="M0 0h264v280H0z"/></g><g transform="translate(62 85)"><defs><filter x="-.8%" y="-2.4%" width="101.5%" height="109.8%" filterUnits="objectBoundingBox" id="m"><feOffset dy="2" in="SourceAlpha" result="shadowOffsetOuter1"/><feColorMatrix values="0 0 0 0 0 0 0 0 0 0 0 0 0 0 0 0 0 0 0.2 0" in="shadowOffsetOuter1" result="shadowMatrixOuter1"/><feMerge><feMergeNode in="shadowMatrixOuter1"/><feMergeNode in="SourceGraphic"/></feMerge></filter></defs><g filter="url(#m)" transform="translate(6 7)" fill="#252C2F" fill-rule="nonzero"><path d="M34 41h-2.758C17.315 41 9 33.336 9 20.5 9 10.127 10.817 0 32.53 0h2.94C57.183 0 59 10.127 59 20.5 59 32.569 48.721 41 34 41M32.385 6C13 6 13 12.841 13 21.502 13 28.572 16.116 37 30.97 37H34c12.365 0 21-6.373 21-15.498C55 12.84 55 6 35.615 6zM96 41h-2.758C79.315 41 71 33.336 71 20.5 71 10.127 72.817 0 94.53 0h2.94C119.183 0 121 10.127 121 20.5 121 32.569 110.721 41 96 41M94.385 6C75 6 75 12.841 75 21.502 75 28.572 78.12 37 92.97 37H96c12.365 0 21-6.373 21-15.498C117 12.84 117 6 97.615 6z"/><path d="M2.955 5.772C3.645 5.096 11.21 0 32.5 0c17.851 0 21.63 1.853 27.35 4.652l.419.207c.398.14 2.431.83 4.81.907a17 17 0 0 0 4.563-.869C76.17 1.722 82.562 0 97.5 0c21.29 0 28.854 5.096 29.545 5.772 1.634 0 2.955 1.29 2.955 2.885v2.886c0 1.596-1.32 2.886-2.955 2.886 0 0-6.901 0-6.901 2.886 0 2.885-1.962-4.176-1.962-5.772v-2.81c-3.603-1.38-10.054-3.947-20.682-3.947-11.842 0-17.739 2.1-22.798 4.185l.057.137-.003 1.986-2.217 5.35L69.8 15.36c-.244-.097-.772-.27-1.504-.451-2.04-.503-4.137-.656-5.992-.276q-1.021.21-1.891.633l-2.643 1.29-2.643-5.16.117-2.295.08-.195c-4.362-2.033-8.385-4.12-22.824-4.12-10.628 0-17.078 2.565-20.682 3.944v2.812c0 1.596-2.954 8.657-2.954 5.772 0-2.886-5.91-2.886-5.91-2.886-1.63 0-2.954-1.29-2.954-2.886V8.657c0-1.595 1.324-2.885 2.955-2.885"/></g></g></g></g></g></g></svg>
